icon-themes/breeze_svg/cmd/lc_strikeout.svg

<svg viewBox="0 0 24 24" xmlns="http://www.w3.org/2000/svg"><path d="m12.367188 4c-3.2113223-.0295029-7.0777333 2.1569725-4.9277349 7.082031h7.5605469c-11.9999934-2.9999974-1.999075-9.999994.041016-1.9999998h.958984v-2.7480468c-.015035-1.499999-1.70602-2.3162826-3.632812-2.3339844zm-8.367188 8v1h16v-1zm9 1.998047c5.286619 5.243296-2.633314 6.924696-5 1h-1v3c.1910978 2.515798 11.999999 3.999994 10-4z" fill="#4d4d4d"/></svg>

<svg xmlns="http://www.w3.org/2000/svg" viewBox="0 0 24 24">
 <path 
     style="fill:#4d4d4d" 
     d="M 12.367188 4 C 9.1558657 3.9704971 5.2894547 6.1569725 7.4394531 11.082031 L 15 11.082031 C 3.0000066 8.0820336 13.000925 1.082037 15.041016 9.0820312 L 16 9.0820312 L 16 6.3339844 C 15.984965 4.8339854 14.29398 4.0177018 12.367188 4 z M 4 12 L 4 13 L 20 13 L 20 12 L 4 12 z M 13 13.998047 C 18.286619 19.241343 10.366686 20.922743 8 14.998047 L 7 14.998047 L 7 17.998047 C 7.1910978 20.513845 18.999999 21.998041 17 13.998047 L 13 13.998047 z "
     />
 </svg>
